X:1
T:Title
%%score { 1 | 2 }
L:1/8
M:4/4
K:Ab
V:1 treble nm="Grand Piano"
V:2 bass 
V:1
 z4 z2 z[Q:1/4=85] [CE] | [Ec][Ee][Ed][Ec] B F2 A | GABE c3 c | [Fd][Fd][DF][Fd] [Fd] [Ec]2 [Ec] | %4
 [=DB][DA][DG][DA] [_DB]3 [DE] | [Ec][Ee][Ed][Ec] B F2 A | GABE c3 c | eedc [FB] F2 F | %8
[M:7/8] Gdc<B [CA]3 |[M:1/8] [CA] |[M:4/4] GGGA B B2 c | A2 d2 c3 [Ec] | %12
 [EB][E=A][EB][Ge] [A=d] [Ac]2 [Ad] | [Ge]2 [A=d]2 [G_d]3 E | [Ec][Ee][Ed][Ec] [FB] F2 A | %15
 GABE c3 c | %16
 eedc [FB] F2 F[Q:1/4=84][Q:1/4=82][Q:1/4=81][Q:1/4=80][Q:1/4=78][Q:1/4=77][Q:1/4=76][Q:1/4=74][Q:1/4=73][Q:1/4=72][Q:1/4=70][Q:1/4=69][Q:1/4=68][Q:1/4=66][Q:1/4=65] | %17
[M:7/8] Gdc<B [CA]3 |] %18
V:2
 z4 z2 z [A,,A,] | [A,,A,][C,A,][B,,G,][A,,A,] [D,F,D] [D,B,D]2 [D,F,D] | %2
 [E,D][E,F,D][E,G,D][E,G,] [A,E]3 [A,E] | [D,A,][D,A,][D,A,][D,A,] [A,,A,] [A,,A,]2 [A,,A,] | %4
 [B,,A,][B,,F,][B,,B,][B,,F,] [E,G,]3 [E,G,] | %5
 [A,,A,][C,A,][B,,G,][A,,A,] [D,F,D] [D,B,D]2 [D,F,D] | [E,D][E,F,D][E,G,D][E,G,] [A,E]3 [A,E] | %7
 [A,CE][A,CE][G,B,E][A,E] [D,A,] [D,A,D]2 [D,B,D] |[M:7/8] [E,B,D][E,G,E][E,A,E]<[E,G,D] [A,,A,]3 | %9
[M:1/8] [A,,A,] |[M:4/4] [E,B,D][D,B,D][E,B,D][E,A,C] [E,G,D] [E,G,D]2 [E,G,E] | %11
 [A,C]2 [A,F]2[K:bass] [A,E]3 [A,,A,] | [B,,G,][B,,_G,][B,,=G,][B,,B,] [B,,B,] [B,,B,]2 [B,,B,] | %13
 [E,B,]2 [F,B,]2 [E,B,]3 [E,G,] | [A,,A,][C,A,][B,,G,][A,,A,] [D,A,] [D,A,D]2 [D,F,D] | %15
 [E,D][E,F,D][E,G,D][E,G,] [A,E]3 [A,E] | [A,CE][A,CE][G,B,E][A,E] [D,A,] [D,A,D]2 [D,B,D] | %17
[M:7/8] [E,B,D][E,G,E][E,A,E]<[E,G,D] [A,,E,A,]3 |] %18

